packages/assets/static/images/icons/elevator.svg

<svg width="24" height="24" viewBox="0 0 24 24" xmlns="http://www.w3.org/2000/svg" fill="currentColor" aria-hidden="true"> <path d="M22.1255 22.143H20.9555V8.36176C20.9555 7.53488 20.2824 6.86176 19.4555 6.86176H4.64299C3.81611 6.86176 3.14299 7.53488 3.14299 8.36176V22.143H1.87549C1.46111 22.143 1.12549 22.4786 1.12549 22.893C1.12549 23.3074 1.46111 23.643 1.87549 23.643H22.1255C22.5399 23.643 22.8755 23.3074 22.8755 22.893C22.8755 22.4786 22.5399 22.143 22.1255 22.143ZM4.64299 8.36176H19.4555V22.143H18.0024V12.2993C18.0024 11.8849 17.6667 11.5493 17.2524 11.5493H6.84611C6.43174 11.5493 6.09611 11.8849 6.09611 12.2993V22.143H4.64299V8.36176ZM11.2992 22.143H7.59611V13.0493H11.2992V22.143ZM12.7992 13.0493H16.5024V22.143H12.7992V13.0493Z"/> <path d="M9.79924 10.6118H14.2992C14.7136 10.6118 15.0492 10.2761 15.0492 9.86176C15.0492 9.44738 14.7136 9.11176 14.2992 9.11176H9.79924C9.38486 9.11176 9.04924 9.44738 9.04924 9.86176C9.04924 10.2761 9.38486 10.6118 9.79924 10.6118Z"/> <path d="M6.51986 3.96582L7.50799 2.9777V5.99551C7.50799 6.40988 7.84361 6.74551 8.25799 6.74551C8.67236 6.74551 9.00799 6.40988 9.00799 5.99551V2.97676L9.99611 3.96488C10.1424 4.11113 10.3346 4.18426 10.5267 4.18426C10.7189 4.18426 10.9102 4.11113 11.0574 3.96488C11.3499 3.67238 11.3499 3.19707 11.0574 2.90457L8.78861 0.63582C8.7708 0.618008 8.75299 0.60207 8.73424 0.586133C8.73049 0.582383 8.7258 0.57957 8.72205 0.576758C8.70705 0.56457 8.69205 0.55332 8.67611 0.54207C8.67236 0.539258 8.66768 0.537383 8.66393 0.53457C8.64705 0.524258 8.63018 0.513945 8.6133 0.50457C8.61049 0.502695 8.60674 0.501758 8.60393 0.499883C8.58518 0.490508 8.56643 0.481133 8.54674 0.472695C8.54674 0.472695 8.54299 0.47082 8.54018 0.47082C8.51955 0.462383 8.49893 0.454883 8.47736 0.44832C8.47736 0.44832 8.47268 0.447383 8.4708 0.446445C8.45018 0.439883 8.42861 0.434258 8.40705 0.430508C8.40143 0.42957 8.39486 0.428633 8.38924 0.427695C8.37143 0.424883 8.35268 0.421133 8.33486 0.419258C8.31049 0.416445 8.28518 0.415508 8.25986 0.415508C8.23455 0.415508 8.21018 0.416445 8.18486 0.419258C8.16611 0.421133 8.1483 0.423945 8.13049 0.427695C8.12486 0.428633 8.1183 0.42957 8.11268 0.430508C8.09111 0.435195 8.06955 0.44082 8.04893 0.446445C8.04893 0.446445 8.04424 0.447383 8.04236 0.44832C8.0208 0.454883 8.00018 0.462383 7.97955 0.47082C7.97955 0.47082 7.9758 0.472695 7.97299 0.472695C7.9533 0.481133 7.93455 0.490508 7.9158 0.499883C7.91299 0.501758 7.90924 0.502695 7.90643 0.50457C7.88861 0.513945 7.87174 0.524258 7.8558 0.53457C7.85205 0.537383 7.84736 0.539258 7.84361 0.54207C7.82768 0.552383 7.81268 0.56457 7.79768 0.576758C7.79393 0.57957 7.78924 0.58332 7.78549 0.586133C7.76674 0.60207 7.74799 0.618008 7.73111 0.63582L5.46236 2.90457C5.16986 3.19707 5.16986 3.67238 5.46236 3.96488C5.75486 4.25738 6.23018 4.25738 6.52268 3.96488L6.51986 3.96582Z"/> <path d="M14.8561 6.5252C14.8561 6.5252 14.8589 6.52801 14.8608 6.52988C14.8767 6.54582 14.8936 6.56082 14.9114 6.57488C14.9199 6.58238 14.9292 6.58895 14.9386 6.59551C14.9489 6.60301 14.9592 6.61145 14.9705 6.61895C14.9808 6.62645 14.9921 6.63207 15.0033 6.63863C15.0136 6.64426 15.023 6.65082 15.0333 6.65645C15.0446 6.66207 15.0558 6.6677 15.068 6.67332C15.0783 6.67801 15.0896 6.68363 15.0999 6.68832C15.1111 6.69301 15.1224 6.69676 15.1336 6.70051C15.1458 6.70519 15.1571 6.70895 15.1692 6.7127C15.1805 6.71645 15.1917 6.71832 15.203 6.72113C15.2152 6.72395 15.2274 6.7277 15.2405 6.73051C15.2536 6.73332 15.2667 6.73426 15.2799 6.73613C15.2911 6.73801 15.3014 6.73988 15.3127 6.74082C15.3371 6.74363 15.3624 6.74457 15.3867 6.74457C15.4111 6.74457 15.4364 6.74363 15.4608 6.74082C15.4721 6.73988 15.4824 6.73801 15.4936 6.73613C15.5067 6.73426 15.5199 6.73238 15.533 6.73051C15.5452 6.7277 15.5574 6.72488 15.5705 6.72113C15.5817 6.71832 15.593 6.71551 15.6042 6.7127C15.6164 6.70895 15.6277 6.70426 15.6399 6.70051C15.6511 6.69676 15.6624 6.69301 15.6736 6.68832C15.6849 6.68363 15.6952 6.67801 15.7055 6.67332C15.7167 6.6677 15.7289 6.66301 15.7402 6.65645C15.7505 6.65082 15.7599 6.64426 15.7702 6.63863C15.7814 6.63207 15.7927 6.62551 15.803 6.61895C15.8142 6.61145 15.8246 6.60395 15.8349 6.59551C15.8442 6.58895 15.8536 6.58238 15.8621 6.57488C15.8799 6.56082 15.8958 6.54488 15.9127 6.52988C15.9146 6.52801 15.9155 6.52707 15.9174 6.5252L18.1861 4.25645C18.4786 3.96395 18.4786 3.48863 18.1861 3.19613C17.8936 2.90363 17.4183 2.90363 17.1258 3.19613L16.1377 4.18426V1.10645C16.1377 0.69207 15.8021 0.356445 15.3877 0.356445C14.9733 0.356445 14.6377 0.69207 14.6377 1.10645V4.18426L13.6496 3.19613C13.3571 2.90363 12.8817 2.90363 12.5892 3.19613C12.2967 3.48863 12.2967 3.96395 12.5892 4.25645L14.858 6.5252H14.8561Z"/> </svg>

<svg viewBox="0 0 24 24" xmlns="http://www.w3.org/2000/svg" aria-hidden="true" fill="currentColor"><path d="M22.126 22.143h-1.17V8.362c0-.827-.674-1.5-1.5-1.5H4.643c-.827 0-1.5.673-1.5 1.5v13.781H1.875a.75.75 0 1 0 0 1.5h20.25a.75.75 0 1 0 0-1.5M4.642 8.362h14.813v13.781h-1.454v-9.844a.75.75 0 0 0-.75-.75H6.846a.75.75 0 0 0-.75.75v9.844H4.643zm6.656 13.781H7.596v-9.094H11.3zm1.5-9.094h3.703v9.094H12.8z"/><path d="M9.8 10.612h4.5a.75.75 0 1 0 0-1.5H9.8a.75.75 0 1 0 0 1.5M6.52 3.966l.988-.988v3.018a.75.75 0 1 0 1.5 0v-3.02l.988.989a.75.75 0 0 0 1.061 0 .75.75 0 0 0 0-1.06L8.79.635 8.734.587l-.012-.01-.046-.034-.012-.007-.05-.03L8.603.5 8.547.473 8.54.47 8.477.448q-.001 0-.006-.002a1 1 0 0 0-.064-.015L8.389.428 8.335.419a.7.7 0 0 0-.205.009L8.113.43q-.033.007-.064.015l-.007.002-.062.023-.007.002q-.03.013-.057.027l-.01.005-.05.03q-.007.003-.012.007l-.046.035-.013.01-.054.049-2.269 2.269a.75.75 0 0 0 1.06 1.06zm8.336 2.56a1 1 0 0 0 .083.07l.031.023.033.02.03.017.035.017.032.015.034.013.035.012.034.008.038.01.039.005.033.005a.7.7 0 0 0 .148 0l.033-.005.039-.005.037-.01.034-.008.036-.012.034-.013.032-.015q.016-.007.034-.017l.03-.017.033-.02.032-.023.027-.021q.027-.022.05-.045l.005-.005 2.27-2.269a.75.75 0 0 0-1.061-1.06l-.988.988V1.106a.75.75 0 1 0-1.5 0v3.078l-.988-.988a.75.75 0 0 0-1.06 1.06l2.268 2.27z"/></svg>
